X: 598
T: Buhe nuyide batou weng
L: 1/8
M: 2/4
K: C
G G/ G/ E G [I:setbarnb 1]| 
A EG2 | 
G4 | 
E G A c/ c/ | 
G E D C | 
D4 | 
D E G G | 
E G G E | 
D/ E/ D/ C/ C G, | 
A,4 | 
D/ E/ D/ C/ D E | 
D4 | 
C/ C/ C/ A,/ E, G, | 
G,4 |]

@@@ Tune index: 9472
